symbols/web/airline_seat_recline_extra/materialsymbolsrounded/airline_seat_recline_extra_wght700gradN25_24px.svg

<svg xmlns="http://www.w3.org/2000/svg" height="24" width="24"><path d="M8.35 6.175q-.95 0-1.637-.688-.688-.687-.688-1.637 0-.975.688-1.662Q7.4 1.5 8.35 1.5q.975 0 1.663.688.687.687.687 1.662 0 .95-.687 1.637-.688.688-1.663.688Zm-.6 14.4q-1.3 0-2.088-.7-.787-.7-1.062-1.95L2.775 8.65q-.125-.625.287-1.1.413-.475 1.013-.475.5 0 .85.287.35.288.45.763l1.925 9.8h5.35q.525 0 .912.387.388.388.388.913 0 .55-.388.95-.387.4-.912.4Zm12.2.85q-.425.25-.837.125-.413-.125-.663-.55l-2.375-4.075H9.65q-.7 0-1.212-.425-.513-.425-.663-1.1L6.8 10.675q-.275-1.4.512-2.463Q8.1 7.15 9.65 7.15q.7 0 1.613.525.912.525 1.187 1.725l.9 4.3h2.225q.75 0 1.163.337.412.338.837 1.013l2.8 4.825q.25.425.113.875-.138.45-.538.675Z"/></svg>

<svg xmlns="http://www.w3.org/2000/svg" height="24" width="24"><path d="M8.35 6.175Q7.4 6.175 6.713 5.487Q6.025 4.8 6.025 3.85Q6.025 2.875 6.713 2.188Q7.4 1.5 8.35 1.5Q9.325 1.5 10.013 2.188Q10.7 2.875 10.7 3.85Q10.7 4.8 10.013 5.487Q9.325 6.175 8.35 6.175ZM7.75 20.575Q6.45 20.575 5.662 19.875Q4.875 19.175 4.6 17.925L2.775 8.65Q2.65 8.025 3.062 7.55Q3.475 7.075 4.075 7.075Q4.575 7.075 4.925 7.362Q5.275 7.65 5.375 8.125L7.3 17.925Q7.3 17.925 7.3 17.925Q7.3 17.925 7.3 17.925H12.65Q13.175 17.925 13.562 18.312Q13.95 18.7 13.95 19.225Q13.95 19.775 13.562 20.175Q13.175 20.575 12.65 20.575ZM19.95 21.425Q19.525 21.675 19.113 21.55Q18.7 21.425 18.45 21L16.075 16.925H9.65Q8.95 16.925 8.438 16.5Q7.925 16.075 7.775 15.4L6.8 10.675Q6.525 9.275 7.312 8.212Q8.1 7.15 9.65 7.15Q10.35 7.15 11.263 7.675Q12.175 8.2 12.45 9.4L13.35 13.7H15.575Q16.325 13.7 16.738 14.037Q17.15 14.375 17.575 15.05L20.375 19.875Q20.625 20.3 20.488 20.75Q20.35 21.2 19.95 21.425Z"/></svg>
